!!!COM: Music21
!!!OTL: Pasacorredoiras do Choqueiro
!!!OMV: pezas_pasacorredoiras_pasacorredoiras-do-choqueiro_pasacorredoiras-do-choqueiro-partitura.musicxml
**kern
*I"Bagpipes
*I'Bag
*clefG^2
*k[]
*M2/4
=1
!LO:TX:a:t=Andante
*MM96
!LO:TX:a:t=[quarter]=96
4.r
8gg
=||
16cccLL
16bb
16aa
16ggJJ
16ffLL
16ee
16dd
16ccJJ
=
8ee
24eeLL
24ff
24eeJJ
4dd
=
16eeLL
16ff
16ee
16ccJJ
16eeLL
16ff
16ee
16bJJ
=
8dd
24ddLL
24ee
24ddJJ
8ccL
8ggJ
=
16cccLL
16bb
16aa
16ggJJ
16ffLL
16ee
16dd
16ccJJ
!!linebreak:original
=
8ee
24eeLL
24ff
24eeJJ
4dd
=
16eeLL
16ff
16ee
16ccJJ
16eeLL
16ff
16ee
16bJJ
=
4.cc
8gg
=||
16cccLL
16bb
16aa
16ggJJ
16ffLL
16ee
16dd
16ccJJ
=
8ee
24eeLL
24ff
24eeJJ
4dd
=
16eeLL
16ff
16ee
16ccJJ
16eeLL
16ff
16ee
16bJJ
!!linebreak:original
=
8dd
24ddLL
24ee
24ddJJ
8ccL
8ggJ
=
16cccLL
16bb
16aa
16ggJJ
16ffLL
16ee
16dd
16ccJJ
!!linebreak:original
=
8ee
24eeLL
24ff
24eeJJ
4dd
=
16eeLL
16ff
16ee
16ccJJ
16eeLL
16ff
16ee
16bJJ
=
4.cc
16eeLL
16ffJJ
=||
8ggL
16eeL
16ffJJ
8ggL
16aaL
16bbJJ
=
8ccc
24aaLL
24bb
24aaJJ
8ggL
16aaL
16bbJJ
=
8.cccL
16aaJk
8ffL
16ffL
16aaJJ
!!linebreak:original
=
16ggLL
16aa
16gg
16eeJJ
8ccL
16eeL
16ffJJ
=
8ggL
16eeL
16ffJJ
8ggL
16aaL
16bbJJ
=
8ccc
24aaLL
24bb
24aaJJ
8ggL
16aaL
16bbJJ
=
8cccL
16bbL
16aaJJ
16ggLL
16ee
16ff
16ddJJ
=
4.cc
16eeLL
16ffJJ
=||
8ggL
16eeL
16ffJJ
8ggL
16aaL
16bbJJ
!!linebreak:original
=
8ccc
24aaLL
24bb
24aaJJ
8ggL
16aaL
16bbJJ
=
8.cccL
16aaJk
8ffL
16ffL
16aaJJ
!!linebreak:original
=
16ggLL
16aa
16gg
16eeJJ
8ccL
16eeL
16ffJJ
=
8ggL
16eeL
16ffJJ
8ggL
16aaL
16bbJJ
=
8ccc
24aaLL
24bb
24aaJJ
8ggL
16aaL
16bbJJ
=
8cccL
16bbL
16aaJJ
16ggLL
16ee
16ff
16ddJJ
=
4.cc
8gg
==
*-
